world_stage/static/flags/rect/ggy.svg

<svg height="800" viewBox="0 0 1200 800" width="1200" xmlns="http://www.w3.org/2000/svg"><path d="m0 0h900v600h-900z" fill="#fff" transform="matrix(1.3333333 0 0 -1.3333333 0 800)"/><path d="m0 0v-236.001h-386v-127.999h386v-236h128v236h386v127.999h-386v236.001z" fill="#e8112d" transform="matrix(1.3333333 0 0 -1.3333333 514.6668 -.0004)"/><g fill="#f9dd16"><path d="m0 0 25 25h225v50h-225l-25 25z" transform="matrix(1.3333333 0 0 -1.3333333 300 466.66667)"/><path d="m0 0 25-25v-225h50v225l25 25z" transform="matrix(1.3333333 0 0 -1.3333333 533.33333 100)"/><path d="m0 0-25 25v225h-50v-225l-25-25z" transform="matrix(1.3333333 0 0 -1.3333333 666.66667 700)"/><path d="m0 0-25-25h-225v-50h225l25-25z" transform="matrix(1.3333333 0 0 -1.3333333 900 333.33333)"/></g></svg>

<?xml version="1.0" encoding="UTF-8" standalone="no"?>
<!-- Created with Inkscape (http://www.inkscape.org/) -->

<svg
   version="1.1"
   id="svg1"
   width="1200"
   height="800"
   viewBox="0 0 1200 800"
   sodipodi:docname="gg.ai"
   xmlns:inkscape="http://www.inkscape.org/namespaces/inkscape"
   xmlns:sodipodi="http://sodipodi.sourceforge.net/DTD/sodipodi-0.dtd"
   xmlns="http://www.w3.org/2000/svg"
   xmlns:svg="http://www.w3.org/2000/svg">
  <defs
     id="defs1" />
  <sodipodi:namedview
     id="namedview1"
     pagecolor="#ffffff"
     bordercolor="#000000"
     borderopacity="0.25"
     inkscape:showpageshadow="2"
     inkscape:pageopacity="0.0"
     inkscape:pagecheckerboard="0"
     inkscape:deskcolor="#d1d1d1">
    <inkscape:page
       x="0"
       y="0"
       inkscape:label="1"
       id="page1"
       width="1200"
       height="800"
       margin="0"
       bleed="0" />
  </sodipodi:namedview>
  <g
     id="layer-MC0"
     inkscape:groupmode="layer"
     inkscape:label="Layer 1">
    <path
       id="path1"
       d="M 0,0 H 900 V 600 H 0 Z"
       style="fill:#ffffff;fill-opacity:1;fill-rule:nonzero;stroke:none"
       transform="matrix(1.3333333,0,0,-1.3333333,0,800)" />
    <path
       id="path2"
       d="M 0,0 V -236.001 H -386 V -364 H 0 v -236 h 128 v 236 h 386 v 127.999 H 128 V 0 Z"
       style="fill:#e8112d;fill-opacity:1;fill-rule:nonzero;stroke:none"
       transform="matrix(1.3333333,0,0,-1.3333333,514.6668,-4e-4)" />
    <path
       id="path3"
       d="M 0,0 25,25 H 250 V 75 H 25 L 0,100 Z"
       style="fill:#f9dd16;fill-opacity:1;fill-rule:nonzero;stroke:none"
       transform="matrix(1.3333333,0,0,-1.3333333,300,466.66667)" />
    <path
       id="path4"
       d="M 0,0 25,-25 V -250 H 75 V -25 L 100,0 Z"
       style="fill:#f9dd16;fill-opacity:1;fill-rule:nonzero;stroke:none"
       transform="matrix(1.3333333,0,0,-1.3333333,533.33333,100)" />
    <path
       id="path5"
       d="M 0,0 -25,25 V 250 H -75 V 25 L -100,0 Z"
       style="fill:#f9dd16;fill-opacity:1;fill-rule:nonzero;stroke:none"
       transform="matrix(1.3333333,0,0,-1.3333333,666.66667,700)" />
    <path
       id="path6"
       d="M 0,0 -25,-25 H -250 V -75 H -25 L 0,-100 Z"
       style="fill:#f9dd16;fill-opacity:1;fill-rule:nonzero;stroke:none"
       transform="matrix(1.3333333,0,0,-1.3333333,900,333.33333)" />
  </g>
</svg>
